X:1
T:All Round My Hat
M:4/4
L:1/4
K:F
 C| F2 G A| F2 G A| B2 c B| G- E- C| C| F F G A| F2 A B| c c d A| c3 c|\
 d d B d| c- B G A| B G c A| F- E C C| F F G A| F FG/2-A/2 B| c c G A|\
 F3||
